X:1
T:Title
%%score { ( 1 3 ) | ( 2 4 ) }
L:1/8
M:9/8
K:C
V:1 treble nm="Grand Piano"
V:3 treble 
V:2 bass 
V:4 bass 
V:1
 z3 z3[Q:1/4=100] [EG][EG][EG] | [Ec]3 [FA]3 [EG][G,DF][G,CE] | [G,B,D]6 [B,DF][B,DF][B,DF] | %3
 [B,Fd]3 [DFB]3 [B,FA][B,EG][G,DF] | [G,CE]6 [EG][EG][EG] | [Ge]3 [Ec]3 [Gd][Gc][GB] | A6 cBA | %7
 G3 c3 [Gd][Ec][DB] |[M:3/4] [Ec]6 |[M:3/8] ddd |[M:9/8] d3 z3 z3 | [Ec]6 z3 | [Ec]3 z3 z3 | %13
 [Fd]6 z3 | [Ge]3 z3 z3 | [FA]6 z3 | G3 c3 [Fd][Ec][DB] |[M:3/4] [Ec]6 |] %18
V:2
 z3 z3 [C,C][C,C][C,C] | [C,G,]3 [C,C]3 [C,C]B,,C, | G,,6 G,,G,,G,, | G,,3 G,,3 G,,G,,G,, | %4
 C,6 [C,C][C,C][C,C] | [C,C]3 [C,G,]3 [E,C][E,C][E,C] | [F,CF]6 [^F,A,_E][F,A,E][F,CE] | %7
 [G,CE]3 [G,E]3 [G,,G,][G,,G,][G,,G,] |[M:3/4] [C,G,]6 |[M:3/8][K:treble] FFF | %10
[M:9/8] F-[G,F-][G,F] [G,DF]3 FF[K:bass]G, | [C,G,]C,C, C,3[K:treble] EEE | %12
 A,A,[K:bass]A, [A,CE]3 C-[C^F]A, | [G,B,]G,G, G,3[K:treble] GGG | z3 z3 [E,C]3[K:treble] | %15
 F,F,F, F,3 [^F,A,_E][F,A,E][F,CE] | [G,CE]3 [G,E]3 [G,,G,][G,,G,][G,,G,] |[M:3/4] [C,G,]6 |] %18
V:3
 x9 | x9 | x9 | x9 | x9 | x9 | x9 | x9 |[M:3/4] x6 |[M:3/8] x3 |[M:9/8] z B,B, B3 GA[FB] | %11
 z G,G, G,3 ccc | CCC e3 [^FA]B[Fc] | z B,B, B,3 eee | z CC [Ec]3 [Gd]cB | CCC C3 cBA | x9 | %17
[M:3/4] x6 |] %18
V:4
 x9 | x9 | x9 | x9 | x9 | x9 | x9 | x9 |[M:3/4] x6 |[M:3/8][K:treble] x3 | %10
[M:9/8] .[G,B,]3 z3 .[G,B,]3[K:bass] | x6[K:treble] x3 | z3[K:bass] z3 D,3 | x6[K:treble] x3 | %14
 [C,C]C,C, [C,G,]3 z[K:treble] GG | x9 | x9 |[M:3/4] x6 |] %18

